!!!SOCIAL_FUNCTION: steal-partner dance songs
!!!PDT:	1943
!!!LING_GROUP: Muskogean
!!!LANG: Non-Tone
Specific Region: Oklahoma, California, Mississippi, Louisiana, Texas, Alabama
!!!REG: Southeast
!!!COM: Anon.
!!!OTL: Steal-partner Dance Song (d)
!!!ODT: <1933//
!!!MPN: Lysander Tubby
!!!MLC: Philadelphia, Mississippi, United States of America
!! Song was recorded in January 1933.
!!!AGN: monody
!!!AMT: irregular
!!!RWG: Transcribed pitches, durations, and meters are only approximate.
**kern
*ICvox
*Imale
*clefF4
*k[f#c#g#d#]
*M3/4
*MM92
*[A,A]
*>A
=!|:1
8G#
8G#
4G#
4F#
=2
8E
8E
8E
8E
8E
8r
=3
8F#
8F#
(8.F#
16E)
4E
=4
(8.G#
16F#)
4G#
4F#
=5
8E
8C#
8E
8E
8E
8r
=6
8E
8C#
8E
8E
4E
*M2/4
=7
4C#
4F#
=8
4E
8C#
8E+
*M3/4
=9
4.E
8r
8E
8C#
*M2/4
=10
8E
8E
4E
==:|!
*-
!!!CNT: Choctaw
!!!TXO: Choctaw
!!!OCY: United States
!!!OCL: Frances Densmore
!!!YOR: Frances Densmore, "Choctaw Music"
!!!YOR: Bulletin 136, page 155, No. 36
!!!PPR: Smithsonian Institution, Bureau of American Ethnology
!!!PPR: Government Printing Office
!!!PDT: 1943
!!!PPP: Washington, DC, United States of America
!!!YEC: Electronic Copyright 2000 David Huron
!!!YER: August 2000
!!!YEN: United States of America
!!!ENC: David Huron
!!!RDT: August 28, 2000
!!!EEV: Release 1.0
!!!AIN: vox
